Avidclan_Website/assets/images/icons/clean-markup-ic.svg

<?xml version="1.0" encoding="utf-8"?>
<!-- Generator: Adobe Illustrator 24.1.1, SVG Export Plug-In . SVG Version: 6.00 Build 0)  -->
<svg version="1.1" id="Layer_1" xmlns="http://www.w3.org/2000/svg" xmlns:xlink="http://www.w3.org/1999/xlink" x="0px" y="0px"
	 viewBox="0 0 473.6 252" style="enable-background:new 0 0 473.6 252;" xml:space="preserve">
<style type="text/css">
	.st0{clip-path:url(#SVGID_2_);}
	.st1{fill:#007AFB;}
</style>
<g>
	<defs>
		<rect id="SVGID_1_" x="0" y="0" width="473.6" height="252"/>
	</defs>
	<clipPath id="SVGID_2_">
		<use xlink:href="#SVGID_1_"  style="overflow:visible;"/>
	</clipPath>
	<g class="st0">
		<path class="st1" d="M26.3,128.4l76.5,108.4L81.3,252L0,136.8v-21.5L81.3,0l21.5,15.2L26.3,123.6L26.3,128.4z M277.4,2.3l24,10.7
			L196.2,249.7l-24-10.7L277.4,2.3z M447.3,123.6L370.8,15.2L392.2,0l81.3,115.2v21.5L392.2,252l-21.5-15.2l76.5-108.4L447.3,123.6z
			"/>
	</g>
</g>
</svg>

<svg width="474" height="252" viewBox="0 0 474 252" fill="none" xmlns="http://www.w3.org/2000/svg">
<g clip-path="url(#clip0_493_873)">
<mask id="mask0_493_873" style="mask-type:luminance" maskUnits="userSpaceOnUse" x="0" y="0" width="474" height="252">
<path d="M473.6 0H0V252H473.6V0Z" fill="white"/>
</mask>
<g mask="url(#mask0_493_873)">
<path d="M26.3 128.4L102.8 236.8L81.3 252L0 136.8V115.3L81.3 0L102.8 15.2L26.3 123.6V128.4ZM277.4 2.3L301.4 13L196.2 249.7L172.2 239L277.4 2.3ZM447.3 123.6L370.8 15.2L392.2 0L473.5 115.2V136.7L392.2 252L370.7 236.8L447.2 128.4L447.3 123.6Z" fill="#0E53BE"/>
</g>
</g>
<defs>
<clipPath id="clip0_493_873">
<rect width="473.6" height="252" fill="white"/>
</clipPath>
</defs>
</svg>
